svgs/lunarsettings.svg

<svg xmlns="http://www.w3.org/2000/svg" viewBox="0 0 192 192"><path d="M114.156 52.636c-9.201 0-18.169 2.9-25.613 8.282A43.384 43.384 0 0 0 72.714 82.6a43.157 43.157 0 0 0 0 26.8 43.384 43.384 0 0 0 15.829 21.682 43.725 43.725 0 0 0 25.613 8.282 43.7 43.7 0 0 0 30.812-12.701A43.273 43.273 0 0 0 157.731 96a43.273 43.273 0 0 0-12.763-30.663 43.7 43.7 0 0 0-30.812-12.701Z" fill="none" stroke="#000" stroke-width="12" stroke-linecap="round" stroke-linejoin="round"/><path d="M114.147 175.5c-28.538-.003-54.907-15.156-69.175-39.75a79.164 79.164 0 0 1 0-79.5C59.24 31.656 85.609 16.503 114.147 16.5Z" fill="none" stroke="#000" stroke-width="12" stroke-linecap="round" stroke-linejoin="round"/></svg>

<svg
    xmlns="http://www.w3.org/2000/svg"
    viewBox="0 0 192 192"
    id="vector">
    <path
        id="path"
        d="M 114.156 52.636 C 104.955 52.636 95.987 55.536 88.543 60.918 C 81.1 66.3 75.557 73.892 72.714 82.6 C 69.87 91.308 69.87 100.692 72.714 109.4 C 75.557 118.108 81.1 125.7 88.543 131.082 C 95.987 136.464 104.955 139.364 114.156 139.364 C 125.708 139.364 136.799 134.792 144.968 126.663 C 153.137 118.534 157.731 107.496 157.731 96 C 157.731 84.504 153.137 73.466 144.968 65.337 C 136.799 57.208 125.708 52.636 114.156 52.636 Z"
        fill="none"
        stroke="#000000"
        stroke-width="12"
        stroke-linecap="round"
        stroke-linejoin="round"/>
    <path
        id="path_1"
        d="M 114.147 175.5 C 85.609 175.497 59.24 160.344 44.972 135.75 C 30.701 111.153 30.701 80.847 44.972 56.25 C 59.24 31.656 85.609 16.503 114.147 16.5 Z"
        fill="none"
        stroke="#000000"
        stroke-width="12"
        stroke-linecap="round"
        stroke-linejoin="round"/>
</svg>
